src/main/webapp/scripts/pdfjs/v54530/web/images/toolbarButton-viewLayers.svg

<svg fill="none" height="16" viewBox="0 0 16 16" width="16" xmlns="http://www.w3.org/2000/svg"><path d="m8.36645 2.34562c-.22767-.12749-.50523-.12749-.7329 0l-6.25 3.5c-.23686.13264-.38355.38291-.38355.65438s.14669.52174.38355.65438l6.25 3.50002c.22767.1275.50523.1275.7329 0l6.25005-3.50002c.2368-.13264.3835-.38291.3835-.65438s-.1467-.52174-.3835-.65438zm-.36645 6.79479-4.71501-2.64041 4.71501-2.64041 4.715 2.64041zm-6.36353-.06381 6.36352 3.5638 6.32551-3.54279.733 1.30869-6.69201 3.748c-.22768.1275-.50527.1276-.73296 0l-6.729996-3.769z" fill="#000"/></svg>

<svg width="16" height="16" viewBox="0 0 16 16" fill="none" xmlns="http://www.w3.org/2000/svg">
<path d="M8.36645 2.34562C8.13878 2.21813 7.86122 2.21813 7.63355 2.34562L1.38355 5.84562C1.14669 5.97826 1 6.22853 1 6.5C1 6.77147 1.14669 7.02174 1.38355 7.15438L7.63355 10.6544C7.86122 10.7819 8.13878 10.7819 8.36645 10.6544L14.6165 7.15438C14.8533 7.02174 15 6.77147 15 6.5C15 6.22853 14.8533 5.97826 14.6165 5.84562L8.36645 2.34562ZM8 9.14041L3.28499 6.5L8 3.85959L12.715 6.5L8 9.14041ZM1.63647 9.0766L7.99999 12.6404L14.3255 9.09761L15.0585 10.4063L8.36649 14.1543C8.13881 14.2818 7.86122 14.2819 7.63353 14.1543L0.903534 10.3853L1.63647 9.0766Z" fill="black"/>
</svg>
